src/assets/images/youtube_button.svg

<svg fill="none" height="52" viewBox="0 0 76 52" width="76" xmlns="http://www.w3.org/2000/svg" xmlns:xlink="http://www.w3.org/1999/xlink"><mask id="a" fill="#fff"><path clip-rule="evenodd" d="m66.9592 1.58507c3.1701.85381 5.67 3.35311 6.5232 6.52382 1.5857 5.79141 1.5247 17.86331 1.5247 17.86331s0 12.0103-1.5241 17.8023c-.8538 3.1701-3.3531 5.67-6.5238 6.5232-5.792 1.5247-28.9594 1.5247-28.9594 1.5247s-23.1069 0-28.95934-1.5851c-3.17071-.8538-5.67001-3.3537-6.52382-6.5238-1.524086-5.731-1.524086-17.8023-1.524086-17.8023s0-12.0109 1.524086-17.80231c.85324-3.17015 3.41409-5.731 6.52326-6.58424 5.792-1.52465 28.9594-1.52465 28.9594-1.52465s23.1679 0 28.9599 1.58507zm-17.071 24.32643-19.2655 11.0961v-22.1922z" fill="#fff" fill-rule="evenodd"/></mask><path clip-rule="evenodd" d="m66.9592 1.58507c3.1701.85381 5.67 3.35311 6.5232 6.52382 1.5857 5.79141 1.5247 17.86331 1.5247 17.86331s0 12.0103-1.5241 17.8023c-.8538 3.1701-3.3531 5.67-6.5238 6.5232-5.792 1.5247-28.9594 1.5247-28.9594 1.5247s-23.1069 0-28.95934-1.5851c-3.17071-.8538-5.67001-3.3537-6.52382-6.5238-1.524086-5.731-1.524086-17.8023-1.524086-17.8023s0-12.0109 1.524086-17.80231c.85324-3.17015 3.41409-5.731 6.52326-6.58424 5.792-1.52465 28.9594-1.52465 28.9594-1.52465s23.1679 0 28.9599 1.58507zm-17.071 24.32643-19.2655 11.0961v-22.1922z" fill="#f00" fill-rule="evenodd"/><path d="m73.4824 8.10889-.9656.25986.0011.00421zm-6.5232-6.52382-.264.96455.0039.00105zm8.0479 24.38713-1-.0051v.0051zm-1.5241 17.8023.9656.26.0015-.0056zm-6.5238 6.5232.2546.9671.0052-.0014zm-57.91874-.0604.26142-.9652-.0014-.0004zm-6.52382-6.5238-.96641.257.00082.003zm0-35.60461-.96565-.2599-.00142.0054zm6.52326-6.58424-.25458-.967107-.01007.002763zm21.5828 35.48295h-1v1.73l1.4991-.8634zm19.2655-11.0961.4991.8666 1.5045-.8666-1.5045-.8665zm-19.2655-11.0961.4991-.8666-1.4991-.8634v1.73zm43.8254-6.96636c-.9459-3.51505-3.7147-6.2831-7.2288-7.229559l-.5202 1.931189c2.8262.76115 5.0571 2.9917 5.8177 5.81808zm.559 18.12316c1 .005 1 .0049 1 .0048 0-.0002 0-.0004 0-.0006 0-.0004 0-.0011 0-.0019 0-.0016 0-.004 0-.0071 0-.0062.0001-.0152.0001-.0271.0001-.0238.0002-.0588.0002-.1045.0001-.0913-.0001-.2254-.0008-.3978-.0014-.3448-.0053-.8428-.0149-1.4581-.0192-1.2302-.0614-2.9317-.1535-4.8164-.1828-3.7385-.5661-8.305-1.3913-11.31868l-1.929.52814c.7606 2.77774 1.1396 7.14284 1.3227 10.88824.0908 1.8571.1324 3.5356.1514 4.7498.0094.6069.0132 1.0973.0146 1.4353.0007.169.0009.2999.0008.3882 0 .0442-.0001.0777-.0002.1 0 .0111 0 .0194-.0001.0249v.006.0014.0003s0 0 1 .0051zm-.557 18.0567c.7914-3.0075 1.1748-7.553 1.3652-11.2765.0959-1.8764.1438-3.5695.1678-4.7935.012-.6123.018-1.1077.021-1.4506.0015-.1715.0022-.3048.0026-.3957.0002-.0454.0003-.0802.0003-.1038.0001-.0118.0001-.0208.0001-.0269 0-.0031 0-.0054 0-.007 0-.0009 0-.0015 0-.0019 0-.0003 0-.0005 0-.0006s0-.0002-1-.0002-1 0-1 0v.0003.0014.006c0 .0055 0 .0138-.0001.0249 0 .0222-.0001.0555-.0003.0995-.0003.0879-.0011.2182-.0025.3865-.003.3365-.0089.8247-.0207 1.4289-.0237 1.2089-.071 2.8804-.1656 4.7306-.1907 3.7296-.5693 8.0853-1.302 10.8697zm-7.2311 7.2345c3.5151-.9459 6.2831-3.7147 7.2296-7.2289l-1.9312-.5201c-.7611 2.8261-2.9917 5.0571-5.8181 5.8177zm-29.2192.559c0 1 .0001 1 .0004 1h.0008.0033.0129c.0113 0 .0281-.0001.0503-.0001.0444 0 .1102-.0001.1961-.0003.1719-.0004.4244-.0011.7476-.0026.6465-.003 1.5761-.009 2.7096-.0209 2.2664-.0239 5.3499-.0716 8.616-.1671 3.2644-.0955 6.7191-.239 9.7256-.4548 2.9789-.2139 5.6011-.5037 7.1514-.9118l-.5092-1.9341c-1.3457.3542-3.7915.6361-6.7854.851-2.9664.213-6.3895.3554-9.6409.4505-3.2498.0951-6.3202.1426-8.5786.1664-1.129.0119-2.0546.0178-2.6977.0208-.3215.0015-.5724.0022-.7428.0026-.0851.0002-.1501.0003-.1938.0003-.0218 0-.0383.0001-.0493.0001-.0055 0-.0096 0-.0123 0-.0014 0-.0024 0-.003 0-.0004 0-.0006 0-.0008 0-.0001 0-.0002 0-.0002 1zm-29.22076-.6199c1.56726.4245 4.19856.726 7.18096.9484 3.01.2245 6.4634.3736 9.7244.4729 3.2625.0993 6.3406.1489 8.6025.1737 1.1312.0125 2.0588.0187 2.7038.0218.3225.0015.5745.0023.7459.0027.0858.0002.1514.0003.1957.0003.0221 0 .0389.0001.0502.0001h.0128.0033.0009c.0002 0 .0003 0 .0003-1s0-1-.0002-1c-.0001 0-.0004 0-.0007 0-.0007 0-.0017 0-.003 0-.0027 0-.0068 0-.0123 0-.0109 0-.0274-.0001-.0491-.0001-.0436 0-.1084-.0001-.1933-.0003-.1699-.0004-.4201-.0012-.7409-.0027-.6415-.0031-1.5649-.0093-2.6914-.0216-2.2535-.0248-5.3179-.0742-8.5637-.173-3.2473-.0989-6.668-.2469-9.6365-.4683-2.9962-.2234-5.4479-.5163-6.80682-.8843zm-7.22799-7.229c.94646 3.5142 3.7145 6.2829 7.22939 7.2294l.52004-1.9312c-2.82653-.7611-5.05709-2.9922-5.81825-5.8183zm-.558496-18.0623c-1.00000029 0-1.00000029.0001-1.00000029.0002.00000006.0002.00000006.0004.00000012.0006.00000012.0004.0000003.0011.00000072.0019.00000083.0016.00000238.004.00000548.0071.00000614.0061.0000183.0152.00004226.027.00004786.0237.00014305.0587.00033212.1043.00037807.0913.00113171.2253.0026341.3975.00300444.3444.0090046.842.02098909 1.4566.0239604 1.2287.0718831 2.9276.1678064 4.8078.190303 3.7301.573679 8.2774 1.365866 11.2563l1.93282-.514c-.7319-2.7522-1.11057-7.106-1.30128-10.8442-.09459-1.8541-.14193-3.5312-.16559-4.7449-.01183-.6067-.01774-1.097-.02069-1.4351-.00147-.169-.00221-.2999-.00257-.3883-.00019-.0442-.00028-.0777-.00032-.1-.00002-.0112-.00004-.0196-.00004-.025 0-.0028-.00001-.0048-.00001-.0061 0-.0007 0-.0011 0-.0014 0-.0002 0-.0002 0-.0003 0 0 0 0-.999996 0zm.557016-18.05681c-.791412 3.00731-1.174846 7.55281-1.365201 11.27641-.0959241 1.8764-.1438483 3.5696-.1678099 4.7936-.01198504.6123-.01798556 1.1077-.02099029 1.4506-.00150245.1715-.00225621.3049-.00263434.3957-.00018907.0454-.00028426.0802-.00033218.1038-.00002396.0118-.00003612.0208-.00004226.027-.0000031.003-.00000465.0054-.00000548.007-.00000042.0008-.0000006.0014-.00000072.0019-.00000006.0002-.00000006.0004-.00000012.0005 0 .0002 0 .0003 1.00000029.0003h.999996c0-.0001 0-.0002 0-.0003 0-.0003 0-.0008 0-.0014 0-.0013.00001-.0033.00001-.006 0-.0055.00002-.0138.00004-.0249.00004-.0222.00013-.0556.00032-.0996.00036-.0879.0011-.2182.00257-.3865.00295-.3365.00886-.8247.02069-1.4289.02366-1.209.07099-2.8805.16558-4.7307.19067-3.7297.56928-8.0854 1.30195-10.86951zm7.22568-7.294084c-3.45254.947474-6.27917 3.777334-7.22424 7.288684l1.93127.5198c.7614-2.82894 3.05648-5.12078 5.82226-5.87979zm29.22405-.560306c0-1-.0002-1-.0004-1s-.0005 0-.0008 0c-.0008 0-.0019 0-.0033.000001-.0029 0-.0072.000002-.0129.000005-.0113.000006-.0281.000018-.0503.000041-.0444.000047-.1102.000141-.1961.000328-.1719.000374-.4244.001121-.7476.002614-.6465.002985-1.5761.008954-2.7096.020889-2.2665.023865-5.3499.071603-8.616.167131-3.2644.095482-6.7191.238925-9.7256.454771-2.9789.213864-5.6011.503741-7.15137.911816l.50913 1.934114c1.34574-.35425 3.79144-.63612 6.78544-.85106 2.9664-.21297 6.3895-.3554 9.6409-.4505 3.2498-.09505 6.3202-.1426 8.5786-.16638 1.129-.01189 2.0546-.01783 2.6977-.0208.3215-.00149.5724-.00223.7427-.0026.0852-.00019.1502-.00028.1939-.00032.0218-.00003.0383-.00004.0493-.00004.0055-.00001.0096-.00001.0123-.00001h.003.0008c.0001 0 .0002 0 .0002-1zm29.2239.62054c-1.5538-.4252-4.1792-.726733-7.1581-.949063-3.0073-.224458-6.4627-.373607-9.7275-.472881-3.2664-.099323-6.3502-.148957-8.6169-.173769-1.1336-.012409-2.0632-.018615-2.7098-.02172-.3233-.001552-.5759-.002329-.7478-.002717-.0859-.000195-.1517-.000292-.1961-.000341-.0222-.000024-.039-.000037-.0504-.000043-.0057-.000003-.0099-.000004-.0128-.000005-.0015-.000001-.0026-.000001-.0033-.000001-.0004 0-.0007 0-.0009 0s-.0003 0-.0003 1 0 1 .0002 1h.0007.003c.0027 0 .0068 0 .0123.00001.011 0 .0275.00001.0493.00004.0436.00005.1086.00014.1938.00033.1703.00039.4212.00116.7427.0027.643.00309 1.5686.00927 2.6975.02163 2.2583.02472 5.3285.07415 8.578.17296 3.2512.09886 6.6738.24692 9.6395.46826 2.9941.22347 5.4367.51634 6.7789.88368zm-36.1014 37.25366 19.2655-11.0961-.9982-1.7331-19.2655 11.0961zm-1.4991-23.0588v22.1922h2v-22.1922zm20.7646 10.2296-19.2655-11.0962-.9982 1.7331 19.2655 11.0962z" fill="#000" mask="url(#a)"/></svg>

<svg width="76" height="52" viewBox="0 0 76 52" fill="none" xmlns="http://www.w3.org/2000/svg">
<mask id="path-1-inside-1" fill="white">
<path fill-rule="evenodd" clip-rule="evenodd" d="M66.9592 1.58507C70.1293 2.43888 72.6292 4.93818 73.4824 8.10889C75.0681 13.9003 75.0071 25.9722 75.0071 25.9722C75.0071 25.9722 75.0071 37.9825 73.483 43.7745C72.6292 46.9446 70.1299 49.4445 66.9592 50.2977C61.1672 51.8224 37.9998 51.8224 37.9998 51.8224C37.9998 51.8224 14.8929 51.8224 9.04046 50.2373C5.86975 49.3835 3.37045 46.8836 2.51664 43.7135C0.992554 37.9825 0.992554 25.9112 0.992554 25.9112C0.992554 25.9112 0.992554 13.9003 2.51664 8.10889C3.36988 4.93874 5.93073 2.37789 9.0399 1.52465C14.8319 0 37.9993 0 37.9993 0C37.9993 0 61.1672 0 66.9592 1.58507ZM49.8882 25.9115L30.6227 37.0076V14.8154L49.8882 25.9115Z"/>
</mask>
<path fill-rule="evenodd" clip-rule="evenodd" d="M66.9592 1.58507C70.1293 2.43888 72.6292 4.93818 73.4824 8.10889C75.0681 13.9003 75.0071 25.9722 75.0071 25.9722C75.0071 25.9722 75.0071 37.9825 73.483 43.7745C72.6292 46.9446 70.1299 49.4445 66.9592 50.2977C61.1672 51.8224 37.9998 51.8224 37.9998 51.8224C37.9998 51.8224 14.8929 51.8224 9.04046 50.2373C5.86975 49.3835 3.37045 46.8836 2.51664 43.7135C0.992554 37.9825 0.992554 25.9112 0.992554 25.9112C0.992554 25.9112 0.992554 13.9003 2.51664 8.10889C3.36988 4.93874 5.93073 2.37789 9.0399 1.52465C14.8319 0 37.9993 0 37.9993 0C37.9993 0 61.1672 0 66.9592 1.58507ZM49.8882 25.9115L30.6227 37.0076V14.8154L49.8882 25.9115Z" fill="#FF0000"/>
<path d="M73.4824 8.10889L72.5168 8.36875L72.5179 8.37296L73.4824 8.10889ZM66.9592 1.58507L66.6952 2.54962L66.6991 2.55067L66.9592 1.58507ZM75.0071 25.9722L74.0071 25.9671V25.9722H75.0071ZM73.483 43.7745L74.4486 44.0345L74.4501 44.0289L73.483 43.7745ZM66.9592 50.2977L67.2138 51.2648L67.219 51.2634L66.9592 50.2977ZM9.04046 50.2373L9.30188 49.2721L9.30048 49.2717L9.04046 50.2373ZM2.51664 43.7135L1.55023 43.9705L1.55105 43.9735L2.51664 43.7135ZM2.51664 8.10889L1.55099 7.84899L1.54957 7.85439L2.51664 8.10889ZM9.0399 1.52465L8.78532 0.557543L8.77525 0.560306L9.0399 1.52465ZM30.6227 37.0076H29.6227V38.7376L31.1218 37.8742L30.6227 37.0076ZM49.8882 25.9115L50.3873 26.7781L51.8918 25.9115L50.3873 25.045L49.8882 25.9115ZM30.6227 14.8154L31.1218 13.9488L29.6227 13.0854V14.8154H30.6227ZM74.4481 7.84904C73.5022 4.33399 70.7334 1.56594 67.2193 0.619481L66.6991 2.55067C69.5253 3.31182 71.7562 5.54237 72.5168 8.36875L74.4481 7.84904ZM75.0071 25.9722C76.0071 25.9772 76.0071 25.9771 76.0071 25.977C76.0071 25.9768 76.0071 25.9766 76.0071 25.9764C76.0071 25.976 76.0071 25.9753 76.0071 25.9745C76.0071 25.9729 76.0071 25.9705 76.0071 25.9674C76.0071 25.9612 76.0072 25.9522 76.0072 25.9403C76.0073 25.9165 76.0074 25.8815 76.0074 25.8358C76.0075 25.7445 76.0073 25.6104 76.0066 25.438C76.0052 25.0932 76.0013 24.5952 75.9917 23.9799C75.9725 22.7497 75.9303 21.0482 75.8382 19.1635C75.6554 15.425 75.2721 10.8585 74.4469 7.84482L72.5179 8.37296C73.2785 11.1507 73.6575 15.5158 73.8406 19.2612C73.9314 21.1183 73.973 22.7968 73.992 24.011C74.0014 24.6179 74.0052 25.1083 74.0066 25.4463C74.0073 25.6153 74.0075 25.7462 74.0074 25.8345C74.0074 25.8787 74.0073 25.9122 74.0072 25.9345C74.0072 25.9456 74.0072 25.9539 74.0071 25.9594C74.0071 25.9621 74.0071 25.9642 74.0071 25.9654C74.0071 25.9661 74.0071 25.9666 74.0071 25.9668C74.0071 25.967 74.0071 25.967 74.0071 25.9671C74.0071 25.9671 74.0071 25.9671 75.0071 25.9722ZM74.4501 44.0289C75.2415 41.0214 75.6249 36.4759 75.8153 32.7524C75.9112 30.876 75.9591 29.1829 75.9831 27.9589C75.9951 27.3466 76.0011 26.8512 76.0041 26.5083C76.0056 26.3368 76.0063 26.2035 76.0067 26.1126C76.0069 26.0672 76.007 26.0324 76.007 26.0088C76.0071 25.997 76.0071 25.988 76.0071 25.9819C76.0071 25.9788 76.0071 25.9765 76.0071 25.9749C76.0071 25.974 76.0071 25.9734 76.0071 25.973C76.0071 25.9727 76.0071 25.9725 76.0071 25.9724C76.0071 25.9723 76.0071 25.9722 75.0071 25.9722C74.0071 25.9722 74.0071 25.9722 74.0071 25.9722C74.0071 25.9723 74.0071 25.9723 74.0071 25.9725C74.0071 25.9728 74.0071 25.9732 74.0071 25.9739C74.0071 25.9752 74.0071 25.9772 74.0071 25.9799C74.0071 25.9854 74.0071 25.9937 74.007 26.0048C74.007 26.027 74.0069 26.0603 74.0067 26.1043C74.0064 26.1922 74.0056 26.3225 74.0042 26.4908C74.0012 26.8273 73.9953 27.3155 73.9835 27.9197C73.9598 29.1286 73.9125 30.8001 73.8179 32.6503C73.6272 36.3799 73.2486 40.7356 72.5159 43.52L74.4501 44.0289ZM67.219 51.2634C70.7341 50.3175 73.5021 47.5487 74.4486 44.0345L72.5174 43.5144C71.7563 46.3405 69.5257 48.5715 66.6993 49.3321L67.219 51.2634ZM37.9998 51.8224C37.9998 52.8224 37.9999 52.8224 38.0002 52.8224C38.0003 52.8224 38.0006 52.8224 38.001 52.8224C38.0018 52.8224 38.0029 52.8224 38.0043 52.8224C38.0072 52.8224 38.0115 52.8224 38.0172 52.8224C38.0285 52.8224 38.0453 52.8223 38.0675 52.8223C38.1119 52.8223 38.1777 52.8222 38.2636 52.822C38.4355 52.8216 38.688 52.8209 39.0112 52.8194C39.6577 52.8164 40.5873 52.8104 41.7208 52.7985C43.9872 52.7746 47.0707 52.7269 50.3368 52.6314C53.6012 52.5359 57.0559 52.3924 60.0624 52.1766C63.0413 51.9627 65.6635 51.6729 67.2138 51.2648L66.7046 49.3307C65.3589 49.6849 62.9131 49.9668 59.9192 50.1817C56.9528 50.3947 53.5297 50.5371 50.2783 50.6322C47.0285 50.7273 43.9581 50.7748 41.6997 50.7986C40.5707 50.8105 39.6451 50.8164 39.002 50.8194C38.6805 50.8209 38.4296 50.8216 38.2592 50.822C38.1741 50.8222 38.1091 50.8223 38.0654 50.8223C38.0436 50.8223 38.0271 50.8224 38.0161 50.8224C38.0106 50.8224 38.0065 50.8224 38.0038 50.8224C38.0024 50.8224 38.0014 50.8224 38.0008 50.8224C38.0004 50.8224 38.0002 50.8224 38 50.8224C37.9999 50.8224 37.9998 50.8224 37.9998 51.8224ZM8.77904 51.2025C10.3463 51.627 12.9776 51.9285 15.96 52.1509C18.97 52.3754 22.4234 52.5245 25.6844 52.6238C28.9469 52.7231 32.025 52.7727 34.2869 52.7975C35.4181 52.81 36.3457 52.8162 36.9907 52.8193C37.3132 52.8208 37.5652 52.8216 37.7366 52.822C37.8224 52.8222 37.888 52.8223 37.9323 52.8223C37.9544 52.8223 37.9712 52.8224 37.9825 52.8224C37.9882 52.8224 37.9925 52.8224 37.9953 52.8224C37.9968 52.8224 37.9979 52.8224 37.9986 52.8224C37.999 52.8224 37.9993 52.8224 37.9995 52.8224C37.9997 52.8224 37.9998 52.8224 37.9998 51.8224C37.9998 50.8224 37.9998 50.8224 37.9996 50.8224C37.9995 50.8224 37.9992 50.8224 37.9989 50.8224C37.9982 50.8224 37.9972 50.8224 37.9959 50.8224C37.9932 50.8224 37.9891 50.8224 37.9836 50.8224C37.9727 50.8224 37.9562 50.8223 37.9345 50.8223C37.8909 50.8223 37.8261 50.8222 37.7412 50.822C37.5713 50.8216 37.3211 50.8208 37.0003 50.8193C36.3588 50.8162 35.4354 50.81 34.3089 50.7977C32.0554 50.7729 28.991 50.7235 25.7452 50.6247C22.4979 50.5258 19.0772 50.3778 16.1087 50.1564C13.1125 49.933 10.6608 49.6401 9.30188 49.2721L8.77904 51.2025ZM1.55105 43.9735C2.49751 47.4877 5.26555 50.2564 8.78044 51.2029L9.30048 49.2717C6.47395 48.5106 4.24339 46.2795 3.48223 43.4534L1.55105 43.9735ZM0.992554 25.9112C-0.00744629 25.9112 -0.00744629 25.9113 -0.00744629 25.9114C-0.00744623 25.9116 -0.00744623 25.9118 -0.00744617 25.912C-0.00744605 25.9124 -0.00744587 25.9131 -0.00744545 25.9139C-0.00744462 25.9155 -0.00744307 25.9179 -0.00743997 25.921C-0.00743383 25.9271 -0.00742167 25.9362 -0.00739771 25.948C-0.00734985 25.9717 -0.00725466 26.0067 -0.00706559 26.0523C-0.00668752 26.1436 -0.00593388 26.2776 -0.00443149 26.4498C-0.00142705 26.7942 0.00457311 27.2918 0.0165576 27.9064C0.040518 29.1351 0.0884407 30.834 0.184364 32.7142C0.374667 36.4443 0.758043 40.9916 1.55023 43.9705L3.48305 43.4565C2.75115 40.7043 2.37248 36.3505 2.18177 32.6123C2.08718 30.7582 2.03984 29.0811 2.01618 27.8674C2.00435 27.2607 1.99844 26.7704 1.99549 26.4323C1.99402 26.2633 1.99328 26.1324 1.99292 26.044C1.99273 25.9998 1.99264 25.9663 1.9926 25.944C1.99258 25.9328 1.99256 25.9244 1.99256 25.919C1.99256 25.9162 1.99255 25.9142 1.99255 25.9129C1.99255 25.9122 1.99255 25.9118 1.99255 25.9115C1.99255 25.9113 1.99255 25.9113 1.99255 25.9112C1.99255 25.9112 1.99255 25.9112 0.992554 25.9112ZM1.54957 7.85439C0.758158 10.8617 0.374724 15.4072 0.184369 19.1308C0.0884449 21.0072 0.0405207 22.7004 0.0165591 23.9244C0.00457406 24.5367 -0.00142646 25.0321 -0.00443119 25.375C-0.00593364 25.5465 -0.0066874 25.6799 -0.00706553 25.7707C-0.0072546 25.8161 -0.00734979 25.8509 -0.00739771 25.8745C-0.00742167 25.8863 -0.00743383 25.8953 -0.00743997 25.9015C-0.00744307 25.9045 -0.00744462 25.9069 -0.00744545 25.9085C-0.00744587 25.9093 -0.00744605 25.9099 -0.00744617 25.9104C-0.00744623 25.9106 -0.00744623 25.9108 -0.00744629 25.9109C-0.00744629 25.9111 -0.00744629 25.9112 0.992554 25.9112C1.99255 25.9112 1.99255 25.9112 1.99255 25.9112C1.99255 25.9111 1.99255 25.911 1.99255 25.9109C1.99255 25.9106 1.99255 25.9101 1.99255 25.9095C1.99255 25.9082 1.99256 25.9062 1.99256 25.9035C1.99256 25.898 1.99258 25.8897 1.9926 25.8786C1.99264 25.8564 1.99273 25.823 1.99292 25.779C1.99328 25.6911 1.99402 25.5608 1.99549 25.3925C1.99844 25.056 2.00435 24.5678 2.01618 23.9636C2.03984 22.7546 2.08717 21.0831 2.18176 19.2329C2.37243 15.5032 2.75104 11.1475 3.48371 8.36339L1.54957 7.85439ZM8.77525 0.560306C5.32271 1.50778 2.49608 4.33764 1.55101 7.84899L3.48228 8.36879C4.24368 5.53985 6.53876 3.24801 9.30454 2.489L8.77525 0.560306ZM37.9993 0C37.9993 -1 37.9991 -1 37.9989 -1C37.9987 -1 37.9984 -1 37.9981 -1C37.9973 -1 37.9962 -1 37.9948 -0.999999C37.9919 -0.999999 37.9876 -0.999997 37.9819 -0.999994C37.9706 -0.999988 37.9538 -0.999976 37.9316 -0.999953C37.8872 -0.999906 37.8214 -0.999812 37.7355 -0.999625C37.5636 -0.999251 37.3111 -0.998504 36.9879 -0.997011C36.3414 -0.994026 35.4118 -0.988057 34.2783 -0.976122C32.0118 -0.952257 28.9284 -0.904519 25.6623 -0.808991C22.3979 -0.713509 18.9432 -0.570066 15.9367 -0.35422C12.9578 -0.140356 10.3356 0.149521 8.78533 0.557596L9.29446 2.49171C10.6402 2.13746 13.0859 1.85559 16.0799 1.64065C19.0463 1.42768 22.4694 1.28525 25.7208 1.19015C28.9706 1.0951 32.041 1.04755 34.2994 1.02377C35.4284 1.01188 36.354 1.00594 36.9971 1.00297C37.3186 1.00148 37.5695 1.00074 37.7398 1.00037C37.825 1.00018 37.89 1.00009 37.9337 1.00005C37.9555 1.00002 37.972 1.00001 37.983 1.00001C37.9885 1 37.9926 1 37.9953 1C37.9967 1 37.9977 1 37.9983 1C37.9987 1 37.9989 1 37.9991 1C37.9992 1 37.9993 1 37.9993 0ZM67.2232 0.62054C65.6694 0.19534 63.044 -0.106193 60.0651 -0.328523C57.0578 -0.552981 53.6024 -0.70213 50.3376 -0.801404C47.0712 -0.900727 43.9874 -0.950361 41.7207 -0.975173C40.5871 -0.987582 39.6575 -0.993788 39.0109 -0.996893C38.6876 -0.998445 38.435 -0.999222 38.2631 -0.99961C38.1772 -0.999805 38.1114 -0.999902 38.067 -0.999951C38.0448 -0.999975 38.028 -0.999988 38.0166 -0.999994C38.0109 -0.999997 38.0067 -0.999998 38.0038 -0.999999C38.0023 -1 38.0012 -1 38.0005 -1C38.0001 -1 37.9998 -1 37.9996 -1C37.9994 -1 37.9993 -1 37.9993 0C37.9993 1 37.9993 1 37.9995 1C37.9996 1 37.9999 1 38.0002 1C38.0008 1 38.0019 1 38.0032 1C38.0059 1 38.01 1 38.0155 1.00001C38.0265 1.00001 38.043 1.00002 38.0648 1.00005C38.1084 1.0001 38.1734 1.00019 38.2586 1.00038C38.4289 1.00077 38.6798 1.00154 39.0013 1.00308C39.6443 1.00617 40.5699 1.01235 41.6988 1.02471C43.9571 1.04943 47.0273 1.09886 50.2768 1.19767C53.528 1.29653 56.9506 1.44459 59.9163 1.66593C62.9104 1.8894 65.353 2.18227 66.6952 2.54961L67.2232 0.62054ZM31.1218 37.8742L50.3873 26.7781L49.3891 25.045L30.1236 36.1411L31.1218 37.8742ZM29.6227 14.8154V37.0076H31.6227V14.8154H29.6227ZM50.3873 25.045L31.1218 13.9488L30.1236 15.6819L49.3891 26.7781L50.3873 25.045Z" fill="black" mask="url(#path-1-inside-1)"/>
</svg>
